X:1
T:Title
%%score { ( 1 3 ) | ( 2 4 ) }
L:1/8
Q:1/4=100
M:4/4
K:Eb
V:1 treble nm="Grand Piano"
V:3 treble 
V:2 bass 
V:4 bass 
V:1
 G2 B2 G2 B2 | AGAB G2 B2 | e2 B2 A2 G2 | [EG]4 [DF]2 z2 | G2 B2 G2 B2 | AGAB G2 B2 | %6
w: Adam~Geibel * * *||||||
 [EG]2 [FB]2 [Fe]2 [Fd]2 | c4 z4 | [Ge]2 [Ge]2 [Ge]2 .[Gd]2 | z4 [EG]2 z2 | %10
w: ||||
 [Ge]2 [Ge]2 [Ge]2 .[Gd]2 | z2 .A2 z4 | G2 G2 [EB]2 .[EG]2 |[M:5/4] z2 .c2 z2 z4 | %14
w: ||||
[M:4/4] e2 dc [EB]2 [EG]2 |[M:5/4] [DF]4 E6 |[M:4/4] B2 BB c2 cc | B2 BB c3 d | %18
w: ||||
 [Ge]2 [EG][EG] [EA][EB][Ec]f | e2 d-[Ad] [Ge]4 |] %20
w: ||
V:2
 [E,B,E]2 [G,B,E]2 [E,B,E]2 [G,B,E]2 | [F,B,D]2 [B,,B,]2 [E,B,E]2 [F,A,D]2 | %2
 [G,B,E]4 [F,B,D]2 [E,B,E]2 | [B,,B,]4 [B,,B,]2 z2 | [E,B,E]2 [G,B,E]2 [E,B,E]2 [G,B,E]2 | %5
 z4 E2 z2 | E,2 D,2 [C,=A,]2 [B,,B,]2 | [B,F]4 z4 | [E,B,]2 [B,,B,]2 [E,B,]2 z[K:treble] c | %9
 z c[K:bass] z B E,2 B,,2 | [E,B,]2 [B,,B,]2 [E,B,]2 z[K:treble] c | z c[K:bass] B,,2 [E,B,E]4 | %12
 [E,B,E]2 [E,B,E]2 [_D,G,]2 z E |[M:5/4] z[K:treble] B[K:bass] [C,A,]2 [=B,,=A,]6 | %14
[M:4/4] [B,,B,]4 [B,,G,]2 [B,,B,]2 |[M:5/4] [B,,A,]4 [E,G,]6 | %16
[M:4/4][K:treble] [B,DF]2 [B,DF][B,DF] [B,EG]2 [B,EG][B,EG] | [B,DF]2 [B,DF][B,DF] [B,EG]3 [B,FA] | %18
 [E,E]2 [E,B,][_D,B,] [C,A,][B,,G,][A,,A,][K:treble][A,CA] | [B,G]2[K:bass] [B,,B,]2 [E,B,]4 |] %20
V:3
 x8 | z2 D2 z4 | x8 | x8 | x8 | z2 D2 z4 | B,4 z4 | z2 z E [B,DB]2 z2 | x8 | %9
 .[B,FB]2 .[B,DA]2 B,2- [B,GB]2 | x8 | .[B,FB]2 [B,D]-[B,DB] G4 | x8 | %13
[M:5/4] .[A,EA]2 E-[Ed] [_Ge]6 |[M:4/4] G4 z4 |[M:5/4] x10 |[M:4/4] x8 | x8 | x8 | z2 .F2 z4 |] %20
V:4
 x8 | x8 | x8 | x8 | x8 | [F,B,]2 [B,,B,]2 [E,B,]2- [E,B,G]2 | x8 | F,3- [F,=A,] B,,2 z2 | %8
 z4 z2 [B,,B,]2[K:treble] | D,2[K:bass] B,,2 z4 | z4 z2 [B,,B,]2[K:treble] | D,2[K:bass] z2 z4 | %12
 z4 z2 [_D,B,]2 |[M:5/4] C,2[K:treble][K:bass] z2 z2 z4 |[M:4/4] x8 |[M:5/4] x10 | %16
[M:4/4][K:treble] x8 | x8 | x7[K:treble] x | x2[K:bass] x6 |] %20

